icons/devices-16.svg

<svg width="16" height="16" viewBox="0 0 16 16" fill="none" xmlns="http://www.w3.org/2000/svg">
<path d="M0 2.75C0 1.7835 0.783502 1 1.75 1H14.25C15.2165 1 16 1.7835 16 2.75V5C16 5.41421 15.6642 5.75 15.25 5.75C14.8358 5.75 14.5 5.41421 14.5 5V2.75C14.5 2.61193 14.3881 2.5 14.25 2.5H1.75C1.61193 2.5 1.5 2.61193 1.5 2.75V10.25C1.5 10.3881 1.61193 10.5 1.75 10.5H7C7.41421 10.5 7.75 10.8358 7.75 11.25C7.75 11.6642 7.41421 12 7 12H6.73218C6.66392 12.9377 6.401 13.7473 5.96733 14.5H7.00001C7.41423 14.5 7.75001 14.8358 7.75001 15.25C7.75001 15.6642 7.41423 16 7.00001 16H4.50001C4.2059 16 3.93894 15.8281 3.81724 15.5604C3.69553 15.2926 3.74156 14.9784 3.93494 14.7568C4.70684 13.8724 5.12794 13.041 5.22703 12H1.75C0.783502 12 0 11.2165 0 10.25V2.75Z" fill="#24292F"/>
<path fill-rule="evenodd" clip-rule="evenodd" d="M10.75 7C9.7835 7 9 7.7835 9 8.75V14.25C9 15.2165 9.7835 16 10.75 16H14.25C15.2165 16 16 15.2165 16 14.25V8.75C16 7.7835 15.2165 7 14.25 7H10.75ZM10.5 8.75C10.5 8.61193 10.6119 8.5 10.75 8.5H14.25C14.3881 8.5 14.5 8.61193 14.5 8.75V14.25C14.5 14.3881 14.3881 14.5 14.25 14.5H10.75C10.6119 14.5 10.5 14.3881 10.5 14.25V8.75Z" fill="#24292F"/>
</svg>

<svg xmlns="http://www.w3.org/2000/svg" width="16" height="16" viewBox="0 0 16 16"><path d="M0 2.75C0 1.784.784 1 1.75 1h12.5c.966 0 1.75.784 1.75 1.75V5a.75.75 0 0 1-1.5 0V2.75a.25.25 0 0 0-.25-.25H1.75a.25.25 0 0 0-.25.25v7.5c0 .138.112.25.25.25H7A.75.75 0 0 1 7 12h-.268a5.712 5.712 0 0 1-.765 2.5H7A.75.75 0 0 1 7 16H4.5a.75.75 0 0 1-.565-1.243c.772-.885 1.193-1.716 1.292-2.757H1.75A1.75 1.75 0 0 1 0 10.25v-7.5Z"/><path d="M10.75 7h3.5c.967 0 1.75.784 1.75 1.75v5.5A1.75 1.75 0 0 1 14.25 16h-3.5A1.75 1.75 0 0 1 9 14.25v-5.5C9 7.784 9.783 7 10.75 7Zm-.25 1.75v5.5c0 .138.112.25.25.25h3.5a.25.25 0 0 0 .25-.25v-5.5a.25.25 0 0 0-.25-.25h-3.5a.25.25 0 0 0-.25.25Z"/></svg>
